X:1
T:[ID 5-33b]
T:[ID 5-33b]
T:Bezeichnung standardisiert: Bourr\'ee de Neris; Tantz In anderer Quelle: Bourr\'ee d'Aigueperse - J.-B. Bouillet, vor 1848; (Hinw. M. Meyerspeer);  Bourr\'ee de Neris - Stevens 1992 (Anm. S. Wascher);  N 3 - H. N. Philipp um 1800 (Anm. S. Wascher);
T:Urheber unbekannt Datum in der hier transkribierten schriftlichen Quelle: 1773
C:Urheber unbekannt
C:Datum in der hier transkribierten schriftlichen Quelle: 1773
L:1/8
M:2/4
K:D
V:1 treble 
V:1
 a2 ag/a/ | bagf | g2 gf/g/ | agfe | f2 fe/f/ | gfed | cd e/g/e/c/ | d2 D2 :: f2 fe/f/ | gfed | %10
 cd e/g/e/c/ | dA FD | f2 fe/f/ | gfed | cd e/g/e/c/ | d2 D2 :| %16

